img/icons/edit.svg

<svg width="24" height="24" viewBox="0 0 24 24" fill="none" xmlns="http://www.w3.org/2000/svg">
<path fill-rule="evenodd" clip-rule="evenodd" d="M15.9657 3C16.5509 3 17.1118 3.23525 17.5215 3.651L20.2929 6.44149C20.7055 6.85695 20.9373 7.42044 20.9373 8.00799C20.9373 8.59554 20.7055 9.15903 20.2929 9.57449L10.1744 19.7594C9.55016 20.4845 8.66525 20.93 7.65148 21H3.0625V20.1001L3.0654 16.307C3.14154 15.3581 3.57968 14.4758 4.24804 13.8828L14.4088 3.65209C14.8209 3.23472 15.3812 3 15.9657 3ZM7.58837 19.2025C8.06583 19.1684 8.51026 18.9447 8.86714 18.5337L15.6255 11.7287L12.2701 8.35006L5.47211 15.1932C5.11001 15.5157 4.886 15.9668 4.84997 16.3795V19.2008L7.58837 19.2025ZM13.5342 7.07756L16.8894 10.4561L19.0289 8.30185C19.1063 8.22392 19.1498 8.11822 19.1498 8.008C19.1498 7.89778 19.1063 7.79208 19.0289 7.71415L16.2551 4.92116C16.1785 4.84349 16.0744 4.7998 15.9657 4.7998C15.857 4.7998 15.7529 4.84349 15.6763 4.92116L13.5342 7.07756Z" fill="#0095BF"/>
</svg>

<svg xmlns="http://www.w3.org/2000/svg" fill="none" viewBox="0 0 24 24"><path fill="#0095bf" fill-rule="evenodd" d="M15.966 3c.585 0 1.146.235 1.556.651l2.77 2.79a2.223 2.223 0 0 1 0 3.133L10.175 19.76C9.55 20.485 8.665 20.93 7.651 21H3.063v-.9l.002-3.793c.077-.949.515-1.831 1.183-2.424l10.16-10.23A2.19 2.19 0 0 1 15.967 3M7.588 19.203c.478-.035.922-.258 1.28-.67l6.758-6.804L12.27 8.35l-6.798 6.843c-.362.323-.586.774-.622 1.187v2.82zm5.946-12.125 3.355 3.378 2.14-2.154a.417.417 0 0 0 0-.588l-2.774-2.793a.406.406 0 0 0-.579 0z" clip-rule="evenodd"/></svg>
